X: 2038
T: Flying Cloud
R: reel
C: Rick Gagne
N: 1988 on whistle
Q: 1/4=175
M: 4/4
K: Ador
cd | "Am"e2de A2AB | cBcd e2dc | "G"Bgfg dBGB | "C5"cABG "D"AGED | 
"Am"EA~A2 ABcd | "Em"eBgB edce | "D"dBAB "Em"G2AB | "G"cABG "Am"A2 :|
eg | "Am"a2ga efge | "D"fdd^c defd | "Am"eAAG ABce | "D"dBAB "Em"GABG | 
"Am"EA~A2 ABcd | "Em"eBgB edce | "D"dBAB "Em"G2AB | "G"cABG "Am"A2 :|
